X: 24878
T: Magistrate, The
R: polka
M: 2/4
K: Bminor
|:BF FE|FA Bd|f/g/f/e/ dB|cA Ac|BF FE|FA Bd|f/g/f/e/ dB|cA Bc:|
d>c df|e>d eg|f>g af|gf ec|dA fd|e>d eg|f>g af|1 gf ec:|2 ec d2||

